X: 011210
T: Aughacashel
C: Josephine Keegan
Z: B.Black
S: "Lamh ar Lamh" v1, tr 16
D: St Patrick Ceili Band
L: 1/8
M: 4/4
R: reel
K: G
GE|DEGA BG (3GFG|AGBG AGEG|DEGA Bdef|gedB AGEG|
DEGA BG (3GFG|AcBG AGEG|(3Bcd ed Bdge|dBAB G2 :|
Bd|gB (3BAB GABd|eBdB G3B|A3B AE (3EDE|cABG ABcd|
g2 ga bgaf|gedB AGEG|DEGA (3Bcd ge|dBAB G2 :|
